!!!COM: Wahab, Mohamad Abdel
!!!CDT: 1915-1991
!!!OTL: National Anthem, Tunisia
!!!ENC: Davis, Matthew J.
!!Vocal Line Only
**kern
*clefG2
*k[b-e-]
*B-:
*M2/4
=1-
16f
==!|:2
8b-
8r
8.b-
16cc
=3
8b-
8r
8.b-
16cc
=4
4dd
6cc
6dd
6cc
=5
4b-
8.r
16b-
=6
4dd
8.dd
16dd
=7
4dd
8.g
16g
=8
4cc
8.cc
16cc
=9
8b-
8r
8.r
16b-
=10
8b-
8r
8.b-
16cc
=11
8b-
8r
8.b-
16cc
=12
8.dd
16dd
6cc
6dd
6cc
=13
4b-
8.r
16b-
=14
4dd
8.dd
16dd
=15
4dd
8.g
16g
=16
4cc
8.cc
16cc
=17
8b-
!Fine
8r
8.r
16b-
==!|:18
4dd
8.dd
16dd
=19
4dd
8.cc
16dd
=20
4ee-
6dd
6ee-
6dd
=21
4cc
8.r
16cc
=22
4cc
8.cc
16cc
=23
4cc
8.b-
16cc
=24
4dd
6cc
6dd
6cc
=25
!First Ending
4b-
8.r
16b-
==:|!26
!Second Ending
[4b-
8.b-]
16f
==|!
*-
